static/images/mobile/copyright/wikipedia-wordmark-fo.svg

<svg width="120" height="18" viewBox="0 0 120 18" fill="none" xmlns="http://www.w3.org/2000/svg">
<path fill-rule="evenodd" clip-rule="evenodd" d="M20.0342 0.00448947C20.0342 0.00448947 16.8005 -0.00561184 15.3608 0.00448947L15.2891 0.0559726V0.556736C15.2891 0.61832 15.3154 0.666782 15.3679 0.704135C15.4214 0.743503 15.4759 0.763691 15.5344 0.763691L15.7656 0.788944C16.3542 0.811145 16.6248 0.967624 16.7056 1.06253C16.8459 1.23416 16.9155 1.41993 16.5753 2.16198L14.5417 6.21857L12.7036 2.45778C12.0999 1.25536 11.9515 0.883838 12.8601 0.81316L13.2195 0.761676C13.3942 0.761676 13.48 0.700092 13.48 0.579959V0.0539585L13.3488 0.0105472C13.3488 0.0105472 9.92725 0.0105472 8.38965 0.0125614L8.31799 0.0640598V0.592075C8.31799 0.710193 8.44116 0.740467 8.67944 0.771778C9.46814 0.877491 9.51031 0.961536 10.1823 2.29972C10.2355 2.4056 10.2926 2.51932 10.3543 2.64153C10.4805 2.89189 10.851 3.64504 10.851 3.64504L12.7672 7.41079C12.7672 7.41079 12.9844 7.89278 13.3251 8.64545L10.538 14.2053L10.3795 14.1639C10.3795 14.1639 6.05548 5.04634 4.80359 1.99437C4.67334 1.67838 4.61481 1.44416 4.61481 1.29978C4.61481 0.989841 4.89447 0.822254 5.45374 0.800037L6.10596 0.77277C6.27856 0.77277 6.36646 0.707157 6.36646 0.567829V0.0680881L6.30786 0.0155826C6.30786 0.0155826 1.12872 0.00952488 0.0585327 0.0155826L0 0.0680881V0.594089C0 0.688983 0.120117 0.74654 0.36145 0.773792C1.01868 0.809131 1.45074 0.915134 1.65875 1.08979C1.86572 1.26647 2.08478 1.7127 2.37555 2.4083C3.18896 4.36214 4.47571 7.10913 5.75348 9.83696L5.75586 9.84191C6.94659 12.384 8.12927 14.909 8.91357 16.7595C9.38208 17.8075 9.97064 17.97 10.6854 16.7272C11.3988 15.4053 12.8156 12.516 13.8881 10.3051L13.6556 11.5158C13.6354 11.5804 13.8454 11.8116 13.911 11.8318L14.0675 11.7328C14.1321 11.753 14.2725 11.6914 14.2927 11.6268L14.3199 11.3603L14.1089 10.3733C15.1072 12.5694 16.4027 15.4 17.0398 16.7121C17.5698 17.8055 18.1725 17.9125 18.7853 16.7454C20.3865 13.1836 25.066 2.47493 25.066 2.47493C25.2689 1.94693 25.5516 1.5441 25.914 1.25032C26.2755 0.958545 26.8337 0.795002 27.5869 0.761676C27.7404 0.761676 27.8181 0.693027 27.8181 0.556736V0.0539585L27.7595 0.00247531H22.011L21.9383 0.0539585V0.556736C21.9383 0.597629 21.9511 0.633762 21.9762 0.664493C21.9876 0.678516 22.0016 0.69141 22.018 0.703113C22.0412 0.721057 22.0648 0.735218 22.0889 0.745487C22.1203 0.758915 22.1525 0.76572 22.1856 0.76572L22.6631 0.787937C23.2527 0.812168 23.4133 0.931293 23.6414 1.12715C23.8686 1.33008 23.8959 1.67536 23.7192 2.16198L18.6309 14.2376L18.435 14.1841L15.205 7.5755L15.2791 7.42089L17.9221 2.47797C18.23 1.954 18.5269 1.48958 18.6773 1.27353C18.9529 0.876773 19.1074 0.802051 19.8605 0.766727C20.014 0.766727 20.0917 0.698062 20.0917 0.559757V0.0590091L20.0342 0.00448947ZM29.8665 15.6359C29.8665 16.2134 30.129 16.5546 30.9689 16.6333L31.5202 16.6868C31.5989 16.6868 31.6777 16.7383 31.6777 16.8433V17.3945L31.6514 17.4481C31.6514 17.4481 29.6565 17.3945 28.8428 17.3945C28.1078 17.3945 26.0604 17.4481 26.0604 17.4481L26.0079 17.3945V16.8433C26.0079 16.7383 26.0866 16.6868 26.1916 16.6868L26.7166 16.6333C27.5828 16.5546 27.8453 16.1346 27.8453 15.6359V6.8949C27.8453 6.32044 27.5293 6.15891 26.7166 6.08219L26.1916 6.02767C26.0866 6.02767 26.0079 6.00344 26.0079 5.92267V5.31794L26.0341 5.26543C26.0341 5.26543 28.1078 5.31794 28.9215 5.31794C29.6302 5.31794 31.6514 5.26543 31.6514 5.26543L31.6777 5.31794V5.8954C31.6777 5.97416 31.6252 6.02666 31.5202 6.02666L30.9689 6.08016C30.1552 6.1579 29.8665 6.3689 29.8665 6.8949V15.6359ZM38.7155 16.6333C37.9543 16.5021 37.613 16.2134 37.613 15.6359V11.7439C38.1905 11.7439 38.6105 11.8732 39.0042 12.3991L41.9179 16.0225C42.2853 16.4415 42.3116 16.7292 42.3116 17.0705V17.3865L42.3379 17.4127C42.3379 17.4127 43.2828 17.3865 43.9391 17.3865C44.674 17.3865 46.0652 17.4127 46.0652 17.4127L46.144 17.3865V16.8352C46.144 16.7565 46.039 16.704 45.9603 16.6788L45.829 16.6545C45.304 16.5506 44.674 16.391 44.3591 16.0256L40.3954 11.2482C40.2642 11.0917 40.1592 10.9615 40.1592 10.804C40.1592 10.593 40.3167 10.3063 40.7629 9.83178L43.0203 7.23513C43.9634 6.16104 44.6712 6.10662 45.6917 6.02813L45.6978 6.02767C45.829 6.02767 45.9078 5.97516 45.9078 5.89643V5.29067L45.829 5.26644C45.829 5.26644 44.674 5.31894 43.9916 5.31894C43.2303 5.31894 41.1041 5.26644 41.1041 5.26644L41.0779 5.29067V5.89643C41.0779 5.97516 41.1304 6.00344 41.2354 6.02767C41.7604 6.10944 41.9966 6.34265 41.9966 6.55365C41.9966 7.05643 41.1829 8.02361 40.1329 9.18059C38.978 10.4173 38.4792 10.8605 37.613 10.8605V6.8949C37.613 6.3689 37.9017 6.23665 38.7155 6.08016L39.0042 6.02666C39.1092 6.0004 39.1617 5.97416 39.1617 5.8954V5.31794L39.1355 5.26543C39.1355 5.26543 37.4828 5.31794 36.7468 5.31794C35.933 5.31794 33.7806 5.26543 33.7806 5.26543L33.7544 5.31794V5.92267C33.7544 6.00344 33.8331 6.02767 33.9381 6.02767L34.4631 6.08219C35.3031 6.15891 35.5919 6.32044 35.5919 6.8949V15.6359C35.5919 16.1346 35.2506 16.5546 34.4631 16.6333L33.9381 16.6868C33.8331 16.6868 33.7544 16.7383 33.7544 16.8433V17.3945L33.8069 17.4481C33.8069 17.4481 35.9594 17.3945 36.6943 17.3945C37.4818 17.3945 39.1355 17.4481 39.1355 17.4481L39.1617 17.3945V16.8433C39.1617 16.7383 39.0829 16.7121 39.0042 16.6868L38.7155 16.6333ZM51.7643 15.6359C51.7643 16.2134 52.0268 16.5546 52.8668 16.6333L53.418 16.6868C53.4968 16.6868 53.5755 16.7383 53.5755 16.8433V17.3945L53.5493 17.4481C53.5493 17.4481 51.5543 17.3945 50.7406 17.3945C50.0056 17.3945 47.9582 17.4481 47.9582 17.4481L47.9057 17.3945V16.8433C47.9057 16.7383 47.9844 16.6868 48.0894 16.6868L48.6144 16.6333C49.4807 16.5546 49.7432 16.1346 49.7432 15.6359V6.8949C49.7432 6.32044 49.4282 6.15891 48.6144 6.08219L48.0894 6.02767C47.9844 6.02767 47.9057 6.00344 47.9057 5.92267V5.31794L47.9319 5.26543C47.9319 5.26543 50.0056 5.31794 50.8193 5.31794C51.5281 5.31794 53.5493 5.26543 53.5493 5.26543L53.5755 5.31794V5.8954C53.5755 5.97416 53.523 6.02666 53.418 6.02666L52.8668 6.08016C52.053 6.1579 51.7643 6.3689 51.7643 6.8949V15.6359ZM55.8612 6.02767C57.0949 6.1064 57.4362 6.13266 57.4362 6.94638L57.4402 15.7651C57.4402 16.2638 57.1777 16.5001 56.364 16.6051L55.8127 16.6838C55.7078 16.708 55.6553 16.7343 55.6553 16.8393V17.3905L55.6815 17.445C55.6815 17.445 57.6502 17.3905 58.3852 17.3905C59.1989 17.3905 61.3008 17.445 61.3008 17.445L61.3241 17.3905V16.8393C61.3241 16.7373 61.2433 16.708 61.1383 16.6838L60.6123 16.6051C59.7714 16.4748 59.4564 16.3405 59.4564 15.7651V12.2497C59.9299 12.4587 60.4548 12.5122 61.1111 12.5122C64.8364 12.5122 65.5977 10.0458 65.5977 8.46984C65.5977 7.10286 64.9152 5.26644 61.1898 5.26644C60.6704 5.26644 60.1285 5.28145 59.6243 5.29543L59.6228 5.29547C59.1847 5.30761 58.7751 5.31894 58.4337 5.31894C57.9908 5.31894 57.2817 5.30118 56.6883 5.28632L56.6791 5.28609C56.5084 5.2818 56.3473 5.27777 56.2053 5.27449C55.9957 5.26966 55.8275 5.26644 55.73 5.26644L55.6775 5.29268V5.89641C55.6775 5.94992 55.7037 6.02767 55.8612 6.02767ZM61.1636 11.751C60.6385 11.751 59.9824 11.7258 59.4573 11.5147H59.4584V6.94739C59.4584 6.26491 59.7734 6.02867 61.0343 6.02867C62.475 6.02867 63.4987 6.52741 63.4987 8.78484C63.4987 10.804 62.7395 11.751 61.1636 11.751ZM70.1185 17.3945C69.3311 17.3945 67.5209 17.4481 67.5209 17.4481L67.4936 17.3945V16.8171C67.4936 16.7656 67.5209 16.6868 67.6511 16.6868L68.2579 16.6333C69.0726 16.5546 69.3088 16.0296 69.3088 15.5056V6.8434C69.3088 6.23766 68.9928 6.13367 68.2579 6.08219L67.6511 6.02767C67.4936 6.00344 67.4936 5.94992 67.4936 5.92267V5.31794L67.5209 5.26543C67.5209 5.26543 69.5673 5.31794 70.3547 5.31794H74.2134C75.0009 5.31794 76.8655 5.26543 76.8655 5.26543L76.9211 5.31794C76.9443 6.44664 77.1281 7.47237 77.3148 8.46883L76.6616 8.57383C76.3739 7.60161 75.8751 6.2114 74.1952 6.2114H72.0953C71.5966 6.2114 71.334 6.39514 71.334 6.84038V10.6475H73.3017C74.0377 10.6475 74.2205 10.3325 74.3264 9.80754L74.4829 9.25631C74.4829 9.17755 74.5364 9.12406 74.6404 9.12406H75.0836C75.1392 9.12406 75.1392 9.15131 75.1392 9.20281C75.1324 9.27309 75.1249 9.34578 75.1171 9.42041L75.1049 9.53434L75.0929 9.64458L75.0927 9.64559C75.0402 10.1294 74.9817 10.6688 74.9817 11.1462C74.9817 11.5826 75.0283 11.9732 75.0748 12.3638L75.075 12.3651C75.0983 12.5607 75.1216 12.7562 75.1392 12.9574L75.0836 13.0109H74.6404C74.5102 13.0109 74.4537 12.9574 74.4537 12.8787L74.3224 12.3022C74.2174 11.7762 73.9812 11.4875 73.2947 11.4875H71.328V15.5046C71.328 16.0003 71.6137 16.4991 72.0892 16.4991H74.5829C75.9216 16.4991 76.6586 15.6591 76.9716 14.2911L77.6258 14.3698L77.0998 17.3875L77.0472 17.44C77.0472 17.44 75.4986 17.3875 74.7121 17.3875L70.1185 17.3945ZM80.594 16.6333L79.9902 16.6868C79.8863 16.6868 79.8328 16.7656 79.8368 16.8393V17.3905L79.861 17.445C79.861 17.445 81.858 17.3905 82.6465 17.3905C82.8266 17.3905 83.0118 17.3932 83.2139 17.3973C83.3618 17.4004 83.5187 17.4042 83.6891 17.4084H83.6899C84.3384 17.4243 85.1836 17.445 86.4778 17.445C89.3885 17.445 92.6443 16.0821 92.6443 11.4875C92.6443 7.99636 90.4909 5.26644 86.1073 5.26644C85.739 5.26644 84.9039 5.28173 84.135 5.29581C83.479 5.30782 82.8712 5.31894 82.6425 5.31894C82.1689 5.31894 79.858 5.26644 79.858 5.26644L79.8328 5.31894V5.89641C79.8328 5.97516 79.9135 6.02767 80.0186 6.02767L80.594 6.08217L80.6535 6.08745C81.4678 6.15929 81.645 6.17491 81.645 6.8434V15.5056C81.645 16.3183 81.3824 16.5546 80.594 16.6333ZM90.3607 11.9347C90.3607 15.6137 88.7312 16.6868 85.8448 16.6868C83.8499 16.6868 83.6661 16.2386 83.6661 15.5056V6.8434C83.6661 6.18515 84.3224 6.02767 85.3461 6.02767C89.7559 6.02767 90.3607 9.20583 90.3607 11.9347ZM98.8412 15.6359C98.8412 16.2134 99.1036 16.5546 99.9437 16.6333L100.495 16.6868C100.574 16.6868 100.652 16.7383 100.652 16.8433V17.3945L100.626 17.4481C100.626 17.4481 98.6312 17.3945 97.8185 17.3945C97.0825 17.3945 95.0361 17.4481 95.0361 17.4481L94.9825 17.3945V16.8433C94.9825 16.7383 95.0613 16.6868 95.1663 16.6868L95.6923 16.6333C96.5575 16.5546 96.821 16.1346 96.821 15.6359V6.8949C96.821 6.32044 96.505 6.15891 95.6923 6.08219L95.1663 6.02767C95.0613 6.02767 94.9825 6.00344 94.9825 5.92267V5.31794L95.0088 5.26543C95.0088 5.26543 97.0825 5.31794 97.8942 5.31794C98.6009 5.31794 100.625 5.26543 100.625 5.26543L100.648 5.31794V5.8954C100.648 5.97416 100.593 6.02666 100.491 6.02666L99.9396 6.08016C99.1238 6.1579 98.8372 6.3689 98.8372 6.8949L98.8412 15.6359ZM107.689 16.6868L106.928 16.6333C105.957 16.5546 105.615 15.9761 105.88 15.3148L107.403 11.5077C107.534 11.1695 107.691 11.0645 108.321 11.0645H113.783L115.384 15.5026C115.648 16.2345 115.278 16.5515 114.282 16.6293L113.547 16.6838C113.411 16.6838 113.359 16.7605 113.359 16.8948V17.3905L113.382 17.445C113.382 17.445 115.956 17.3905 116.874 17.3905C117.9 17.3905 119.921 17.445 119.921 17.445L120 17.3905V16.8948C120 16.7605 119.868 16.6838 119.736 16.6838L119.449 16.6586C118.399 16.5536 117.872 16.1608 117.503 15.1361L112.122 0.909076C111.913 0.384098 111.781 0.120594 111.417 0.120594C111.02 0.120594 110.809 0.384098 110.521 1.06656L104.695 14.7171C103.96 16.3971 103.306 16.6081 102.15 16.6868C102.017 16.6868 101.939 16.7656 101.939 16.8958V17.3945L101.992 17.4481C101.992 17.4481 103.672 17.3945 104.356 17.3945C104.986 17.3945 107.847 17.4481 107.847 17.4481L107.899 17.3945V16.8958C107.899 16.7656 107.794 16.6868 107.689 16.6868ZM110.813 2.95652L113.359 9.96402V9.96503H108.791C108.213 9.96503 108.03 9.88932 108.135 9.6238L110.76 2.95652H110.813Z" fill="black"/>
</svg>

<svg xmlns="http://www.w3.org/2000/svg" width="120" height="18" fill="none"><path fill="#000" fill-rule="evenodd" d="M20.034.004s-3.233-.01-4.673 0l-.072.052v.5c0 .062.026.11.079.148.053.04.108.06.166.06l.232.025c.588.022.859.179.94.274.14.171.21.357-.13 1.099l-2.034 4.057-1.838-3.761C12.1 1.255 11.95.884 12.86.813l.36-.051c.174 0 .26-.062.26-.182V.054l-.131-.043s-3.422 0-4.96.002l-.071.051v.528c0 .118.123.148.361.18.79.105.831.19 1.503 1.528l.172.342c.127.25.497 1.003.497 1.003l1.916 3.766.558 1.234-2.787 5.56-.159-.041S6.056 5.046 4.804 1.994c-.13-.316-.19-.55-.19-.694 0-.31.28-.478.84-.5l.652-.027c.173 0 .26-.066.26-.205v-.5L6.308.016S1.128.01.058.016L0 .068v.526c0 .095.12.153.361.18.658.035 1.09.141 1.298.316.207.176.426.623.717 1.318.813 1.954 2.1 4.701 3.377 7.429l.003.005c1.19 2.542 2.373 5.067 3.158 6.917.468 1.049 1.057 1.211 1.771-.032.714-1.322 2.13-4.211 3.203-6.422l-.232 1.21c-.02.065.19.297.255.317l.157-.1c.064.021.205-.04.225-.105l.027-.267-.211-.987c.998 2.196 2.294 5.027 2.93 6.34.53 1.092 1.133 1.2 1.746.032 1.602-3.561 6.281-14.27 6.281-14.27.203-.528.486-.93.848-1.225.361-.291.92-.455 1.673-.488.153 0 .231-.069.231-.205V.054L27.76.002h-5.748l-.073.052v.503c0 .04.013.077.038.107a.324.324 0 0 0 .113.081c.031.014.063.02.097.02l.477.023c.59.024.75.143.978.34.228.202.255.547.078 1.034l-5.088 12.076-.196-.054-3.23-6.608.074-.155 2.643-4.943c.308-.524.605-.988.755-1.204.276-.397.43-.472 1.183-.507.154 0 .232-.069.232-.207V.059l-.058-.055Zm9.832 15.632c0 .577.263.919 1.103.997l.551.054c.079 0 .158.051.158.156v.552l-.027.053s-1.994-.053-2.808-.053c-.735 0-2.783.053-2.783.053l-.052-.053v-.552c0-.105.079-.156.184-.156l.525-.054c.866-.078 1.128-.498 1.128-.997V6.895c0-.575-.316-.736-1.128-.813l-.525-.054c-.105 0-.184-.025-.184-.105v-.605l.026-.053s2.074.053 2.888.053c.708 0 2.73-.053 2.73-.053l.026.053v.577c0 .08-.053.132-.158.132l-.551.053c-.814.078-1.103.289-1.103.815v8.74Zm8.85.997c-.762-.13-1.103-.42-1.103-.997v-3.892c.578 0 .998.13 1.391.655l2.914 3.624c.367.419.394.706.394 1.047v.317l.026.026s.945-.026 1.601-.026c.735 0 2.126.026 2.126.026l.079-.026v-.552c0-.079-.105-.131-.184-.156l-.131-.024c-.525-.104-1.155-.264-1.47-.63l-3.964-4.777c-.13-.156-.236-.287-.236-.444 0-.211.158-.498.604-.972l2.257-2.597c.943-1.074 1.651-1.128 2.672-1.207h.006c.131 0 .21-.053.21-.132v-.605l-.079-.025s-1.155.053-1.837.053c-.762 0-2.888-.053-2.888-.053l-.026.025v.605c0 .08.052.107.157.132.525.081.762.315.762.526 0 .502-.814 1.47-1.864 2.627-1.155 1.236-1.654 1.68-2.52 1.68V6.894c0-.526.289-.658 1.102-.815l.29-.053c.104-.027.157-.053.157-.132v-.577l-.026-.053s-1.653.053-2.39.053c-.813 0-2.965-.053-2.965-.053l-.027.053v.605c0 .08.08.105.184.105l.525.054c.84.077 1.129.238 1.129.813v8.74c0 .5-.341.92-1.129.998l-.525.054c-.105 0-.184.051-.184.156v.552l.053.053s2.152-.053 2.887-.053c.788 0 2.441.053 2.441.053l.027-.053v-.552c0-.105-.08-.13-.158-.156l-.288-.054Zm13.048-.997c0 .577.263.919 1.103.997l.551.054c.079 0 .157.051.157.156v.552l-.026.053s-1.995-.053-2.808-.053c-.735 0-2.783.053-2.783.053l-.052-.053v-.552c0-.105.078-.156.183-.156l.525-.054c.867-.078 1.13-.498 1.13-.997V6.895c0-.575-.316-.736-1.13-.813l-.525-.054c-.105 0-.183-.025-.183-.105v-.605l.026-.053s2.074.053 2.887.053c.71 0 2.73-.053 2.73-.053l.026.053v.577c0 .08-.052.132-.157.132l-.551.053c-.814.078-1.103.289-1.103.815v8.74Zm4.097-9.608c1.234.078 1.575.105 1.575.918l.004 8.82c0 .498-.262.734-1.076.84l-.551.078c-.105.024-.158.05-.158.155v.552l.026.054s1.97-.055 2.704-.055c.814 0 2.916.055 2.916.055l.023-.055v-.55c0-.103-.08-.132-.186-.156l-.526-.079c-.84-.13-1.156-.265-1.156-.84V12.25c.474.209.999.262 1.655.262 3.725 0 4.487-2.466 4.487-4.042 0-1.367-.683-3.204-4.408-3.204-.52 0-1.061.015-1.566.03h-.001c-.438.012-.848.023-1.19.023-.442 0-1.151-.018-1.745-.033h-.009l-.474-.012c-.21-.004-.377-.008-.475-.008l-.052.027v.603c0 .054.026.132.183.132Zm5.303 5.723c-.526 0-1.182-.025-1.707-.236h.001V6.947c0-.682.315-.918 1.576-.918 1.441 0 2.465.498 2.465 2.756 0 2.019-.76 2.966-2.335 2.966Zm8.954 5.644c-.787 0-2.597.053-2.597.053l-.027-.053v-.578c0-.051.027-.13.157-.13l.607-.054c.815-.078 1.05-.603 1.05-1.127V6.843c0-.605-.315-.71-1.05-.76l-.607-.055c-.157-.025-.157-.078-.157-.105v-.605l.027-.053s2.046.053 2.834.053h3.858c.788 0 2.653-.053 2.653-.053l.055.053c.023 1.129.207 2.154.394 3.15l-.653.106c-.288-.972-.787-2.363-2.467-2.363h-2.1c-.498 0-.761.184-.761.63v3.807h1.968c.736 0 .918-.316 1.024-.84l.157-.552c0-.078.053-.132.157-.132h.444c.055 0 .055.027.055.079l-.022.217-.012.114-.012.11v.002c-.053.483-.111 1.023-.111 1.5 0 .437.046.827.093 1.218v.001c.023.196.047.391.064.592l-.055.054h-.444c-.13 0-.186-.054-.186-.132l-.132-.577c-.105-.526-.34-.814-1.027-.814h-1.967v4.017c0 .495.286.994.761.994h2.494c1.339 0 2.076-.84 2.389-2.208l.654.079-.526 3.018-.053.052s-1.548-.053-2.335-.053l-4.594.008Zm10.476-.762-.604.054c-.104 0-.157.079-.153.152v.552l.024.054s1.997-.055 2.785-.055c.18 0 .366.003.568.007l.475.011c.65.016 1.495.037 2.789.037 2.91 0 6.166-1.363 6.166-5.957 0-3.492-2.153-6.222-6.537-6.222-.368 0-1.203.016-1.972.03-.656.012-1.264.023-1.493.023-.473 0-2.784-.053-2.784-.053l-.025.053v.577c0 .08.08.132.186.132l.575.054.06.005c.814.072.991.088.991.756v8.663c0 .812-.263 1.049-1.051 1.127Zm9.767-4.698c0 3.679-1.63 4.752-4.516 4.752-1.995 0-2.179-.448-2.179-1.181V6.843c0-.658.656-.815 1.68-.815 4.41 0 5.015 3.178 5.015 5.907Zm8.48 3.7c0 .578.263.92 1.103.998l.551.054c.079 0 .157.051.157.156v.552l-.026.053s-1.995-.053-2.808-.053c-.736 0-2.782.053-2.782.053l-.053-.053v-.552c0-.105.078-.156.183-.156l.526-.054c.866-.078 1.129-.498 1.129-.997V6.895c0-.575-.316-.736-1.129-.813l-.526-.054c-.105 0-.183-.025-.183-.105v-.605l.026-.053s2.073.053 2.885.053c.707 0 2.731-.053 2.731-.053l.023.053v.577c0 .08-.055.132-.157.132l-.551.053c-.816.078-1.103.289-1.103.815l.004 8.74Zm8.848 1.052-.761-.054c-.971-.078-1.313-.657-1.048-1.318l1.523-3.807c.131-.338.288-.443.918-.443h5.462l1.601 4.438c.264.732-.106 1.049-1.102 1.126l-.735.055c-.136 0-.188.076-.188.21v.497l.023.054s2.574-.055 3.492-.055c1.026 0 3.047.055 3.047.055l.079-.055v-.495c0-.134-.132-.211-.264-.211l-.287-.025c-1.05-.105-1.577-.498-1.946-1.523L112.122.91c-.209-.525-.341-.788-.705-.788-.397 0-.608.263-.896.946l-5.826 13.65c-.735 1.68-1.389 1.891-2.545 1.97-.133 0-.211.079-.211.209v.498l.053.054s1.68-.053 2.364-.053c.63 0 3.491.053 3.491.053l.052-.053v-.5a.207.207 0 0 0-.21-.208Zm3.124-13.73 2.546 7.007v.001h-4.568c-.578 0-.761-.076-.656-.341l2.625-6.667h.053Z" clip-rule="evenodd"/></svg>
